src/default/svx/res/pr06.svg

<?xml version="1.0" encoding="UTF-8" standalone="no"?>
<svg
   xmlns:dc="http://purl.org/dc/elements/1.1/"
   xmlns:cc="http://creativecommons.org/ns#"
   xmlns:rdf="http://www.w3.org/1999/02/22-rdf-syntax-ns#"
   xmlns:svg="http://www.w3.org/2000/svg"
   xmlns="http://www.w3.org/2000/svg"
   xmlns:sodipodi="http://sodipodi.sourceforge.net/DTD/sodipodi-0.dtd"
   xmlns:inkscape="http://www.inkscape.org/namespaces/inkscape"
   height="15"
   width="15"
   version="1.1"
   id="svg22"
   sodipodi:docname="pr06.svg"
   inkscape:version="1.0.1 (3bc2e813f5, 2020-09-07)">
  <metadata
     id="metadata28">
    <rdf:RDF>
      <cc:Work
         rdf:about="">
        <dc:format>image/svg+xml</dc:format>
        <dc:type
           rdf:resource="http://purl.org/dc/dcmitype/StillImage" />
      </cc:Work>
    </rdf:RDF>
  </metadata>
  <defs
     id="defs26" />
  <sodipodi:namedview
     pagecolor="#ffffff"
     bordercolor="#666666"
     borderopacity="1"
     objecttolerance="10"
     gridtolerance="10"
     guidetolerance="10"
     inkscape:pageopacity="0"
     inkscape:pageshadow="2"
     inkscape:window-width="1920"
     inkscape:window-height="1011"
     id="namedview24"
     showgrid="false"
     inkscape:zoom="19.044743"
     inkscape:cx="11.085743"
     inkscape:cy="5.1673473"
     inkscape:window-x="0"
     inkscape:window-y="0"
     inkscape:window-maximized="1"
     inkscape:current-layer="svg22" />
  <path
     d="M 0.99999996,1.0000001 V 2.0000002 H 2 V 1.0000001 Z m 1.99999984,0 v 1.0000001 h 2 V 1.0000001 Z m 3,0 V 2.0000002 H 7.9999999 V 1.0000001 Z m 3.0000001,0 V 2.0000002 H 11 V 1.0000001 Z m 3.0000001,0 v 1.0000001 h 1 1 V 1.0000001 H 13 Z M 0.99999996,3.0000002 V 5.0000001 H 2 V 3.0000002 Z M 13,3.0000002 v 1.9999999 h 1 V 3.0000002 Z M 0.99999996,6.0000001 V 8.0000002 H 2 V 6.0000001 Z M 13,6.0000001 v 2.0000001 h 1 V 6.0000001 Z M 0.99999996,8.9999999 V 11 H 2 V 8.9999999 Z M 13,8.9999999 V 11 h 1 V 8.9999999 Z M 0.99999996,12 v 2 H 2 V 12 Z M 13,12 v 1 h -1 v 1 h 1 1 V 12 Z M 2.9999999,13 v 1 h 2 v -1 z m 3,0 v 1 h 2 v -1 z m 3,0 v 1 H 11 v -1 z"
     style="opacity:0.8;fill:#808080;fill-opacity:1;opacity:0.8"
     id="path4" />
  <g
     fill="#00ff00"
     id="g18"
     transform="translate(-421.71429,-532.79074)"
     style="fill:#00ff00;fill-opacity:1">
    <path
       d="M 13.3125,1 1,13.3125 V 14 H 1.6875 L 14,1.6875 V 1 Z"
       transform="translate(421.71429,532.79074)"
       id="path14"
       style="fill:#00ff00;fill-opacity:1" />
    <path
       d="m 435.02679,546.79074 -12.3125,-12.3125 v -0.6875 h 0.6875 l 12.3125,12.3125 v 0.6875 z"
       id="path16"
       style="fill:#00ff00;fill-opacity:1" />
  </g>
</svg>

<?xml version="1.0" encoding="UTF-8" standalone="no"?>
<svg
   height="15"
   width="15"
   version="1.1"
   id="svg22"
   sodipodi:docname="pr06.svg"
   inkscape:version="1.4.2 (ebf0e940d0, 2025-05-08)"
   xmlns:inkscape="http://www.inkscape.org/namespaces/inkscape"
   xmlns:sodipodi="http://sodipodi.sourceforge.net/DTD/sodipodi-0.dtd"
   xmlns="http://www.w3.org/2000/svg"
   xmlns:svg="http://www.w3.org/2000/svg"
   xmlns:rdf="http://www.w3.org/1999/02/22-rdf-syntax-ns#"
   xmlns:cc="http://creativecommons.org/ns#"
   xmlns:dc="http://purl.org/dc/elements/1.1/">
  <metadata
     id="metadata28">
    <rdf:RDF>
      <cc:Work
         rdf:about="">
        <dc:format>image/svg+xml</dc:format>
        <dc:type
           rdf:resource="http://purl.org/dc/dcmitype/StillImage" />
      </cc:Work>
    </rdf:RDF>
  </metadata>
  <defs
     id="defs26" />
  <sodipodi:namedview
     pagecolor="#ffffff"
     bordercolor="#666666"
     borderopacity="1"
     objecttolerance="10"
     gridtolerance="10"
     guidetolerance="10"
     inkscape:pageopacity="0"
     inkscape:pageshadow="2"
     inkscape:window-width="1920"
     inkscape:window-height="1011"
     id="namedview24"
     showgrid="false"
     inkscape:zoom="38.089486"
     inkscape:cx="7.337983"
     inkscape:cy="4.8963643"
     inkscape:window-x="0"
     inkscape:window-y="0"
     inkscape:window-maximized="1"
     inkscape:current-layer="svg22"
     inkscape:showpageshadow="2"
     inkscape:pagecheckerboard="0"
     inkscape:deskcolor="#d1d1d1" />
  <path
     id="path4"
     style="opacity:0.5;fill:#0000ff;fill-opacity:1"
     d="M 1 1 L 1 2 L 2 2 L 2 1 L 1 1 z M 3 1 L 3 2 L 5 2 L 5 1 L 3 1 z M 6 1 L 6 2 L 8 2 L 8 1 L 6 1 z M 9 1 L 9 2 L 11 2 L 11 1 L 9 1 z M 12 1 L 12 2 L 13 2 L 14 2 L 14 1 L 13 1 L 12 1 z M 1 3 L 1 5 L 2 5 L 2 3 L 1 3 z M 13 3 L 13 5 L 14 5 L 14 3 L 13 3 z M 1 6 L 1 8 L 2 8 L 2 6 L 1 6 z M 13 6 L 13 8 L 14 8 L 14 6 L 13 6 z M 1 9 L 1 11 L 2 11 L 2 9 L 1 9 z M 13 9 L 13 11 L 14 11 L 14 9 L 13 9 z M 1 12 L 1 14 L 2 14 L 2 12 L 1 12 z M 13 12 L 13 13 L 12 13 L 12 14 L 13 14 L 14 14 L 14 12 L 13 12 z M 3 13 L 3 14 L 5 14 L 5 13 L 3 13 z M 6 13 L 6 14 L 8 14 L 8 13 L 6 13 z M 9 13 L 9 14 L 11 14 L 11 13 L 9 13 z " />
  <path
     id="path14"
     style="fill:#00ff00;fill-opacity:1"
     d="M 1 1 L 1 1.6875 L 6.8125 7.5 L 1 13.3125 L 1 14 L 1.6875 14 L 7.5 8.1875 L 13.3125 14 L 14 14 L 14 13.3125 L 8.1875 7.5 L 14 1.6875 L 14 1 L 13.3125 1 L 7.5 6.8125 L 1.6875 1 L 1 1 z " />
</svg>
